X:506
T:The Streamlet
M:C
L:1/8
B:O'Neill's 506
N:"Moderate"
Z:Transcribed by Dave Wooldridge
K:D
(DF) | A>BAF (GB)dB | A2 d>e f2 D>E | (FA)dB cdec | d4 z2 ||
ef | (gf)(e>d) (dc)(BA) | d2 f>g Ha2 F>G | (Ad)Be (ge)dc | d4 z2 :|


